libs/ui/packages/crypto-icons/src/svg/XBP.svg

<svg width="24" height="24" viewBox="0 0 24 24" fill="none">
<path d="M12 21C7.02975 21 3 16.9703 3 12C3 7.02975 7.02975 3 12 3C16.9703 3 21 7.02975 21 12C21 16.9703 16.9703 21 12 21ZM15.4598 8.73825C15.3278 8.55825 15.1125 8.412 14.817 8.298C14.5223 8.18475 14.1165 8.12775 13.602 8.12775H12.5145L13.3973 5.7015L13.986 4.08375C13.3944 3.93614 12.7881 3.85539 12.1785 3.843C12.1185 3.843 12.0585 3.8385 11.9985 3.8385C11.9065 3.83912 11.8144 3.84162 11.7225 3.846C7.35075 3.9915 3.8385 7.5915 3.8385 12C3.8385 14.3497 4.8525 16.5848 6.621 18.1305L7.26075 16.3717C6.15866 15.1827 5.54653 13.6212 5.547 12C5.547 8.754 7.956 6.06225 11.0798 5.61375C11.2343 5.59125 11.394 5.57625 11.5522 5.56275L9.19575 12.0382L13.8975 11.5755C13.8951 11.5743 13.8926 11.5733 13.89 11.5725C14.0363 11.5253 14.1765 11.463 14.31 11.385C14.6532 11.1881 14.955 10.9265 15.1987 10.6147C15.3322 10.4422 15.4388 10.2488 15.5123 10.0425C15.5948 9.822 15.642 9.5895 15.6517 9.35475C15.661 9.13322 15.5932 8.91533 15.4598 8.73825ZM13.4542 10.317C13.3515 10.596 13.1918 10.7925 12.9705 10.9058C12.7633 11.0161 12.5325 11.0748 12.2977 11.0767H11.4503L12.0187 9.51375H12.8663C12.9675 9.51375 13.0688 9.5265 13.1663 9.55275C13.2556 9.57388 13.3381 9.61722 13.4062 9.67875C13.4727 9.74485 13.5129 9.83278 13.5195 9.92625C13.5281 10.0598 13.5058 10.1935 13.4542 10.317ZM14.4 4.1985L13.8143 5.80875C14.6575 6.05526 15.4416 6.4714 16.1184 7.03165C16.7951 7.5919 17.3503 8.28446 17.75 9.06689C18.1496 9.84931 18.3852 10.7051 18.4424 11.5818C18.4996 12.4585 18.3772 13.3377 18.0826 14.1654C17.788 14.9931 17.3274 15.7519 16.7292 16.3954C16.1309 17.0388 15.4076 17.5532 14.6034 17.9072C13.7993 18.2612 12.9314 18.4472 12.0529 18.4539C11.1743 18.4605 10.3036 18.2877 9.49425 17.946C9.36253 17.8895 9.23271 17.8288 9.105 17.7638L9.774 15.93H10.86C11.844 15.93 12.651 15.7635 13.2825 15.429C13.9132 15.0953 14.3625 14.562 14.6302 13.8285C14.7285 13.557 14.7653 13.3185 14.736 13.113C14.7145 12.9259 14.6526 12.7458 14.5545 12.585C14.4664 12.4439 14.3487 12.3236 14.2095 12.2325C14.1006 12.1619 13.985 12.1021 13.8645 12.054L9.12 12.522L7.59375 16.7078L6.97125 18.4208C7.56239 18.8848 8.21449 19.2653 8.90925 19.5518C9.8895 19.9552 10.9395 20.1623 12 20.1615C16.5 20.1615 20.1615 16.5007 20.1615 12C20.1615 8.33475 17.733 5.226 14.4 4.1985ZM10.92 12.8048H11.91C12.0285 12.8055 12.1463 12.8167 12.2625 12.8385C12.375 12.8565 12.4838 12.8977 12.5805 12.9585C12.6705 13.02 12.735 13.1115 12.762 13.2165C12.7935 13.3298 12.777 13.4782 12.7103 13.662C12.6512 13.8381 12.555 13.9995 12.4282 14.1353C12.3217 14.2455 12.1958 14.3347 12.0563 14.3993C11.9277 14.4575 11.7912 14.4964 11.6512 14.5148C11.5277 14.5319 11.4032 14.5409 11.2785 14.5417H10.2863L10.92 12.8048Z" fill="#21AF67"/>
</svg>

<svg width="24" height="24" viewBox="0 0 24 24" fill="none"><path fill="#21af67" d="M12 21a9 9 0 1 1 0-18 9 9 0 0 1 0 18m3.46-12.262q-.2-.27-.643-.44-.442-.17-1.215-.17h-1.088l.883-2.426.589-1.618a8 8 0 0 0-1.808-.241c-.06 0-.12-.005-.18-.005q-.137.002-.275.008C7.35 3.991 3.838 7.592 3.838 12a8.14 8.14 0 0 0 2.783 6.13l.64-1.758A6.43 6.43 0 0 1 5.547 12c0-3.246 2.409-5.938 5.533-6.386.154-.023.314-.038.472-.051l-2.356 6.475 4.702-.463-.008-.002q.22-.071.42-.188c.343-.197.645-.458.889-.77q.202-.261.313-.572.125-.334.14-.688a.96.96 0 0 0-.192-.617m-2.006 1.579q-.153.419-.484.589c-.207.11-.437.169-.672.17h-.848l.569-1.562h.847q.153 0 .3.039.136.032.24.126a.4.4 0 0 1 .114.247.9.9 0 0 1-.066.391m.946-6.118-.586 1.61a6.453 6.453 0 1 1-4.32 12.137 7 7 0 0 1-.389-.182l.669-1.834h1.086q1.476 0 2.423-.501.946-.5 1.347-1.6.148-.408.106-.716a1.3 1.3 0 0 0-.181-.528 1.15 1.15 0 0 0-.345-.353 2 2 0 0 0-.346-.178l-4.744.468-1.526 4.186-.623 1.713A8.1 8.1 0 0 0 12 20.16c4.5 0 8.162-3.66 8.162-8.161 0-3.665-2.429-6.774-5.762-7.801m-3.48 8.606h.99q.178 0 .352.034a.9.9 0 0 1 .319.12c.09.061.154.152.181.258q.048.17-.052.445a1.3 1.3 0 0 1-.282.473q-.16.166-.372.264a1.4 1.4 0 0 1-.405.116 3 3 0 0 1-.373.027h-.992z"/></svg>
